src/pos-icons/cellphone-charging.svg

<svg height="24" viewBox="0 0 24 24" width="24" xmlns="http://www.w3.org/2000/svg"><path d="m11 18.5v-5.5h-2l4-7.5v5.5h2m2 8h-10v-14h10m0-4h-10c-1.11 0-2 .89-2 2v18a2 2 0 0 0 2 2h10a2 2 0 0 0 2-2v-18c0-1.11-.9-2-2-2z"/></svg>

<?xml version="1.0" encoding="UTF-8"?><!DOCTYPE svg PUBLIC "-//W3C//DTD SVG 1.1//EN" "http://www.w3.org/Graphics/SVG/1.1/DTD/svg11.dtd"><svg xmlns="http://www.w3.org/2000/svg" xmlns:xlink="http://www.w3.org/1999/xlink" version="1.1" id="mdi-cellphone-charging" width="24" height="24" viewBox="0 0 24 24"><path d="M11 18.5V13H9L13 5.5V11H15M17 19H7V5H17M17 1H7C5.89 1 5 1.89 5 3V21A2 2 0 0 0 7 23H17A2 2 0 0 0 19 21V3C19 1.89 18.1 1 17 1Z" /></svg>
